images/6605160.svg

<?xml version="1.0" encoding="UTF-8"?>
<svg xmlns="http://www.w3.org/2000/svg" xmlns:xlink="http://www.w3.org/1999/xlink" width="300pt" height="300pt" viewBox="0 0 300 300" version="1.1">
<defs>
<g>
<symbol overflow="visible" id="glyph0-0">
<path style="stroke:none;" d="M 0.453125 1.59375 L 0.453125 -6.34375 L 4.953125 -6.34375 L 4.953125 1.59375 Z M 0.953125 1.09375 L 4.453125 1.09375 L 4.453125 -5.84375 L 0.953125 -5.84375 Z M 0.953125 1.09375 "/>
</symbol>
<symbol overflow="visible" id="glyph0-1">
<path style="stroke:none;" d="M 0.890625 -6.5625 L 2.078125 -6.5625 L 4.984375 -1.078125 L 4.984375 -6.5625 L 5.84375 -6.5625 L 5.84375 0 L 4.65625 0 L 1.75 -5.484375 L 1.75 0 L 0.890625 0 Z M 0.890625 -6.5625 "/>
</symbol>
<symbol overflow="visible" id="glyph0-2">
<path style="stroke:none;" d="M 0.890625 -6.5625 L 1.765625 -6.5625 L 1.765625 -3.875 L 5 -3.875 L 5 -6.5625 L 5.890625 -6.5625 L 5.890625 0 L 5 0 L 5 -3.125 L 1.765625 -3.125 L 1.765625 0 L 0.890625 0 Z M 0.890625 -6.5625 "/>
</symbol>
</g>
</defs>
<g id="surface32261">
<rect x="0" y="0" width="300" height="300" style="fill:rgb(100%,100%,100%);fill-opacity:1;stroke:none;"/>
<path style="fill:none;stroke-width:1.2;stroke-linecap:butt;stroke-linejoin:miter;stroke:rgb(0%,0%,0%);stroke-opacity:1;stroke-miterlimit:10;" d="M 264.75 149.117188 L 245.273438 142.28125 "/>
<path style="fill:none;stroke-width:1.2;stroke-linecap:butt;stroke-linejoin:miter;stroke:rgb(0%,0%,0%);stroke-opacity:1;stroke-miterlimit:10;" d="M 245.273438 142.28125 L 237.445312 149.007812 "/>
<path style="fill:none;stroke-width:1.2;stroke-linecap:butt;stroke-linejoin:miter;stroke:rgb(0%,0%,100%);stroke-opacity:1;stroke-miterlimit:10;" d="M 237.445312 149.007812 L 229.617188 155.730469 "/>
<path style="fill:none;stroke-width:1.2;stroke-linecap:butt;stroke-linejoin:miter;stroke:rgb(0%,0%,100%);stroke-opacity:1;stroke-miterlimit:10;" d="M 229.617188 155.730469 L 231.523438 165.871094 "/>
<path style="fill:none;stroke-width:1.2;stroke-linecap:butt;stroke-linejoin:miter;stroke:rgb(0%,0%,0%);stroke-opacity:1;stroke-miterlimit:10;" d="M 231.523438 165.871094 L 233.433594 176.015625 "/>
<path style="fill:none;stroke-width:1.2;stroke-linecap:butt;stroke-linejoin:miter;stroke:rgb(0%,0%,100%);stroke-opacity:1;stroke-miterlimit:10;" d="M 229.617188 155.730469 L 219.878906 152.3125 "/>
<path style="fill:none;stroke-width:1.2;stroke-linecap:butt;stroke-linejoin:miter;stroke:rgb(0%,0%,0%);stroke-opacity:1;stroke-miterlimit:10;" d="M 219.878906 152.3125 L 210.140625 148.894531 "/>
<path style=" stroke:none;fill-rule:nonzero;fill:rgb(100%,100%,100%);fill-opacity:1;" d="M 226.617188 150.230469 L 233.617188 150.230469 L 233.617188 161.230469 L 226.617188 161.230469 Z M 226.617188 150.230469 "/>
<g style="fill:rgb(0%,0%,100%);fill-opacity:1;">
  <use xlink:href="#glyph0-1" x="226.617188" y="158.893555"/>
</g>
<path style="fill:none;stroke-width:1.2;stroke-linecap:butt;stroke-linejoin:miter;stroke:rgb(0%,0%,0%);stroke-opacity:1;stroke-miterlimit:10;" d="M 233.433594 176.015625 L 252.910156 182.851562 "/>
<path style="fill:none;stroke-width:1.2;stroke-linecap:butt;stroke-linejoin:miter;stroke:rgb(0%,0%,0%);stroke-opacity:1;stroke-miterlimit:10;" d="M 210.140625 148.894531 L 194.484375 162.339844 "/>
<path style="fill:none;stroke-width:1.2;stroke-linecap:butt;stroke-linejoin:miter;stroke:rgb(0%,0%,0%);stroke-opacity:1;stroke-miterlimit:10;" d="M 194.484375 162.339844 L 184.746094 158.921875 "/>
<path style="fill:none;stroke-width:1.2;stroke-linecap:butt;stroke-linejoin:miter;stroke:rgb(0%,0%,100%);stroke-opacity:1;stroke-miterlimit:10;" d="M 184.746094 158.921875 L 175.007812 155.503906 "/>
<path style="fill:none;stroke-width:1.2;stroke-linecap:butt;stroke-linejoin:miter;stroke:rgb(0%,0%,100%);stroke-opacity:1;stroke-miterlimit:10;" d="M 175.007812 155.503906 L 166.519531 161.375 "/>
<path style="fill:none;stroke-width:1.2;stroke-linecap:butt;stroke-linejoin:miter;stroke:rgb(0%,0%,0%);stroke-opacity:1;stroke-miterlimit:10;" d="M 166.519531 161.375 L 158.03125 167.242188 "/>
<path style="fill:none;stroke-width:1.2;stroke-linecap:butt;stroke-linejoin:miter;stroke:rgb(0%,0%,0%);stroke-opacity:1;stroke-miterlimit:10;" d="M 169.089844 135.730469 L 172.050781 145.617188 "/>
<path style="fill:none;stroke-width:1.2;stroke-linecap:butt;stroke-linejoin:miter;stroke:rgb(0%,0%,100%);stroke-opacity:1;stroke-miterlimit:10;" d="M 172.050781 145.617188 L 175.007812 155.503906 "/>
<path style=" stroke:none;fill-rule:nonzero;fill:rgb(100%,100%,100%);fill-opacity:1;" d="M 172.007812 150.003906 L 179.007812 150.003906 L 179.007812 161.003906 L 172.007812 161.003906 Z M 172.007812 150.003906 "/>
<g style="fill:rgb(0%,0%,100%);fill-opacity:1;">
  <use xlink:href="#glyph0-1" x="172.007812" y="158.666992"/>
</g>
<path style="fill:none;stroke-width:1.2;stroke-linecap:butt;stroke-linejoin:miter;stroke:rgb(0%,0%,0%);stroke-opacity:1;stroke-miterlimit:10;" d="M 158.03125 167.242188 L 141.621094 154.722656 "/>
<path style="fill:none;stroke-width:1.2;stroke-linecap:butt;stroke-linejoin:miter;stroke:rgb(0%,0%,0%);stroke-opacity:1;stroke-miterlimit:10;" d="M 153.441406 169.851562 L 140.316406 159.835938 "/>
<path style="fill:none;stroke-width:1.2;stroke-linecap:butt;stroke-linejoin:miter;stroke:rgb(0%,0%,100%);stroke-opacity:1;stroke-miterlimit:10;" d="M 155.390625 187.714844 L 156.710938 177.476562 "/>
<path style="fill:none;stroke-width:1.2;stroke-linecap:butt;stroke-linejoin:miter;stroke:rgb(0%,0%,0%);stroke-opacity:1;stroke-miterlimit:10;" d="M 156.710938 177.476562 L 158.03125 167.242188 "/>
<path style="fill:none;stroke-width:1.2;stroke-linecap:butt;stroke-linejoin:miter;stroke:rgb(0%,0%,0%);stroke-opacity:1;stroke-miterlimit:10;" d="M 141.621094 154.722656 L 122.574219 162.671875 "/>
<path style="fill:none;stroke-width:1.2;stroke-linecap:butt;stroke-linejoin:miter;stroke:rgb(0%,0%,0%);stroke-opacity:1;stroke-miterlimit:10;" d="M 141.621094 154.722656 L 145.039062 144.984375 "/>
<path style="fill:none;stroke-width:1.2;stroke-linecap:butt;stroke-linejoin:miter;stroke:rgb(0%,0%,100%);stroke-opacity:1;stroke-miterlimit:10;" d="M 145.039062 144.984375 L 148.457031 135.246094 "/>
<path style="fill:none;stroke-width:1.2;stroke-linecap:butt;stroke-linejoin:miter;stroke:rgb(0%,0%,0%);stroke-opacity:1;stroke-miterlimit:10;" d="M 122.574219 162.671875 L 121.253906 172.910156 "/>
<path style="fill:none;stroke-width:1.2;stroke-linecap:butt;stroke-linejoin:miter;stroke:rgb(0%,0%,100%);stroke-opacity:1;stroke-miterlimit:10;" d="M 121.253906 172.910156 L 119.933594 183.144531 "/>
<path style="fill:none;stroke-width:1.2;stroke-linecap:butt;stroke-linejoin:miter;stroke:rgb(0%,0%,0%);stroke-opacity:1;stroke-miterlimit:10;" d="M 127.125 165.339844 L 126.070312 173.53125 "/>
<path style="fill:none;stroke-width:1.2;stroke-linecap:butt;stroke-linejoin:miter;stroke:rgb(0%,0%,100%);stroke-opacity:1;stroke-miterlimit:10;" d="M 126.070312 173.53125 L 125.015625 181.71875 "/>
<path style="fill:none;stroke-width:1.2;stroke-linecap:butt;stroke-linejoin:miter;stroke:rgb(0%,0%,0%);stroke-opacity:1;stroke-miterlimit:10;" d="M 122.574219 162.671875 L 114.367188 156.414062 "/>
<path style="fill:none;stroke-width:1.2;stroke-linecap:butt;stroke-linejoin:miter;stroke:rgb(0%,0%,100%);stroke-opacity:1;stroke-miterlimit:10;" d="M 114.367188 156.414062 L 106.164062 150.152344 "/>
<path style="fill:none;stroke-width:1.2;stroke-linecap:butt;stroke-linejoin:miter;stroke:rgb(0%,0%,100%);stroke-opacity:1;stroke-miterlimit:10;" d="M 119.933594 183.144531 L 128.140625 189.40625 "/>
<path style="fill:none;stroke-width:1.2;stroke-linecap:butt;stroke-linejoin:miter;stroke:rgb(0%,0%,0%);stroke-opacity:1;stroke-miterlimit:10;" d="M 128.140625 189.40625 L 136.34375 195.664062 "/>
<path style=" stroke:none;fill-rule:nonzero;fill:rgb(100%,100%,100%);fill-opacity:1;" d="M 116.933594 177.644531 L 123.933594 177.644531 L 123.933594 188.644531 L 116.933594 188.644531 Z M 116.933594 177.644531 "/>
<g style="fill:rgb(0%,0%,100%);fill-opacity:1;">
  <use xlink:href="#glyph0-1" x="116.933594" y="186.307617"/>
</g>
<path style="fill:none;stroke-width:1.2;stroke-linecap:butt;stroke-linejoin:miter;stroke:rgb(0%,0%,0%);stroke-opacity:1;stroke-miterlimit:10;" d="M 136.34375 195.664062 L 145.867188 191.6875 "/>
<path style="fill:none;stroke-width:1.2;stroke-linecap:butt;stroke-linejoin:miter;stroke:rgb(0%,0%,100%);stroke-opacity:1;stroke-miterlimit:10;" d="M 145.867188 191.6875 L 155.390625 187.714844 "/>
<path style="fill:none;stroke-width:1.2;stroke-linecap:butt;stroke-linejoin:miter;stroke:rgb(0%,0%,0%);stroke-opacity:1;stroke-miterlimit:10;" d="M 136.378906 190.386719 L 143.996094 187.207031 "/>
<path style="fill:none;stroke-width:1.2;stroke-linecap:butt;stroke-linejoin:miter;stroke:rgb(0%,0%,100%);stroke-opacity:1;stroke-miterlimit:10;" d="M 143.996094 187.207031 L 151.617188 184.027344 "/>
<path style="fill:none;stroke-width:1.2;stroke-linecap:butt;stroke-linejoin:miter;stroke:rgb(0%,0%,0%);stroke-opacity:1;stroke-miterlimit:10;" d="M 136.34375 195.664062 L 133.707031 216.136719 "/>
<path style=" stroke:none;fill-rule:nonzero;fill:rgb(100%,100%,100%);fill-opacity:1;" d="M 152.390625 182.214844 L 159.390625 182.214844 L 159.390625 193.214844 L 152.390625 193.214844 Z M 152.390625 182.214844 "/>
<g style="fill:rgb(0%,0%,100%);fill-opacity:1;">
  <use xlink:href="#glyph0-1" x="152.390625" y="190.87793"/>
</g>
<path style="fill:none;stroke-width:1.2;stroke-linecap:butt;stroke-linejoin:miter;stroke:rgb(0%,0%,100%);stroke-opacity:1;stroke-miterlimit:10;" d="M 106.164062 150.152344 L 96.640625 154.128906 "/>
<path style="fill:none;stroke-width:1.2;stroke-linecap:butt;stroke-linejoin:miter;stroke:rgb(0%,0%,0%);stroke-opacity:1;stroke-miterlimit:10;" d="M 96.640625 154.128906 L 87.117188 158.105469 "/>
<path style=" stroke:none;fill-rule:nonzero;fill:rgb(100%,100%,100%);fill-opacity:1;" d="M 99.164062 144.652344 L 113.164062 144.652344 L 113.164062 155.652344 L 99.164062 155.652344 Z M 99.164062 144.652344 "/>
<g style="fill:rgb(0%,0%,100%);fill-opacity:1;">
  <use xlink:href="#glyph0-1" x="99.164062" y="153.31543"/>
  <use xlink:href="#glyph0-2" x="106.141602" y="153.31543"/>
</g>
<path style="fill:none;stroke-width:1.2;stroke-linecap:butt;stroke-linejoin:miter;stroke:rgb(0%,0%,0%);stroke-opacity:1;stroke-miterlimit:10;" d="M 87.117188 158.105469 L 70.707031 145.585938 "/>
<path style="fill:none;stroke-width:1.2;stroke-linecap:butt;stroke-linejoin:miter;stroke:rgb(0%,0%,0%);stroke-opacity:1;stroke-miterlimit:10;" d="M 70.707031 145.585938 L 73.34375 125.113281 "/>
<path style="fill:none;stroke-width:1.2;stroke-linecap:butt;stroke-linejoin:miter;stroke:rgb(0%,0%,0%);stroke-opacity:1;stroke-miterlimit:10;" d="M 66.152344 142.917969 L 68.265625 126.539062 "/>
<path style="fill:none;stroke-width:1.2;stroke-linecap:butt;stroke-linejoin:miter;stroke:rgb(0%,0%,0%);stroke-opacity:1;stroke-miterlimit:10;" d="M 51.660156 153.535156 L 70.707031 145.585938 "/>
<path style="fill:none;stroke-width:1.2;stroke-linecap:butt;stroke-linejoin:miter;stroke:rgb(0%,0%,0%);stroke-opacity:1;stroke-miterlimit:10;" d="M 73.34375 125.113281 L 56.933594 112.59375 "/>
<path style="fill:none;stroke-width:1.2;stroke-linecap:butt;stroke-linejoin:miter;stroke:rgb(0%,0%,0%);stroke-opacity:1;stroke-miterlimit:10;" d="M 56.933594 112.59375 L 37.886719 120.542969 "/>
<path style="fill:none;stroke-width:1.2;stroke-linecap:butt;stroke-linejoin:miter;stroke:rgb(0%,0%,0%);stroke-opacity:1;stroke-miterlimit:10;" d="M 56.902344 117.871094 L 41.664062 124.230469 "/>
<path style="fill:none;stroke-width:1.2;stroke-linecap:butt;stroke-linejoin:miter;stroke:rgb(0%,0%,0%);stroke-opacity:1;stroke-miterlimit:10;" d="M 37.886719 120.542969 L 35.25 141.015625 "/>
<path style="fill:none;stroke-width:1.2;stroke-linecap:butt;stroke-linejoin:miter;stroke:rgb(0%,0%,0%);stroke-opacity:1;stroke-miterlimit:10;" d="M 35.25 141.015625 L 51.660156 153.535156 "/>
<path style="fill:none;stroke-width:1.2;stroke-linecap:butt;stroke-linejoin:miter;stroke:rgb(0%,0%,0%);stroke-opacity:1;stroke-miterlimit:10;" d="M 39.835938 138.40625 L 52.964844 148.421875 "/>
<path style="fill:none;stroke-width:1.2;stroke-linecap:butt;stroke-linejoin:miter;stroke:rgb(0%,0%,100%);stroke-opacity:1;stroke-miterlimit:10;" d="M 148.457031 135.246094 L 158.773438 135.488281 "/>
<path style="fill:none;stroke-width:1.2;stroke-linecap:butt;stroke-linejoin:miter;stroke:rgb(0%,0%,0%);stroke-opacity:1;stroke-miterlimit:10;" d="M 158.773438 135.488281 L 169.089844 135.730469 "/>
<path style="fill:none;stroke-width:1.2;stroke-linecap:butt;stroke-linejoin:miter;stroke:rgb(0%,0%,100%);stroke-opacity:1;stroke-miterlimit:10;" d="M 150.40625 140.152344 L 158.660156 140.34375 "/>
<path style="fill:none;stroke-width:1.2;stroke-linecap:butt;stroke-linejoin:miter;stroke:rgb(0%,0%,0%);stroke-opacity:1;stroke-miterlimit:10;" d="M 158.660156 140.34375 L 166.914062 140.539062 "/>
<path style=" stroke:none;fill-rule:nonzero;fill:rgb(100%,100%,100%);fill-opacity:1;" d="M 145.457031 129.746094 L 152.457031 129.746094 L 152.457031 140.746094 L 145.457031 140.746094 Z M 145.457031 129.746094 "/>
<g style="fill:rgb(0%,0%,100%);fill-opacity:1;">
  <use xlink:href="#glyph0-1" x="145.457031" y="138.40918"/>
</g>
<path style="fill:none;stroke-width:1.2;stroke-linecap:butt;stroke-linejoin:miter;stroke:rgb(0%,0%,0%);stroke-opacity:1;stroke-miterlimit:10;" d="M 169.089844 135.730469 L 181.613281 119.320312 "/>
<path style="fill:none;stroke-width:1.2;stroke-linecap:butt;stroke-linejoin:miter;stroke:rgb(0%,0%,0%);stroke-opacity:1;stroke-miterlimit:10;" d="M 181.613281 119.320312 L 202.082031 121.960938 "/>
<path style="fill:none;stroke-width:1.2;stroke-linecap:butt;stroke-linejoin:miter;stroke:rgb(0%,0%,0%);stroke-opacity:1;stroke-miterlimit:10;" d="M 184.28125 114.769531 L 200.65625 116.878906 "/>
<path style="fill:none;stroke-width:1.2;stroke-linecap:butt;stroke-linejoin:miter;stroke:rgb(0%,0%,0%);stroke-opacity:1;stroke-miterlimit:10;" d="M 173.660156 100.273438 L 181.613281 119.320312 "/>
<path style="fill:none;stroke-width:1.2;stroke-linecap:butt;stroke-linejoin:miter;stroke:rgb(0%,0%,0%);stroke-opacity:1;stroke-miterlimit:10;" d="M 202.082031 121.960938 L 214.601562 105.550781 "/>
<path style="fill:none;stroke-width:1.2;stroke-linecap:butt;stroke-linejoin:miter;stroke:rgb(0%,0%,0%);stroke-opacity:1;stroke-miterlimit:10;" d="M 214.601562 105.550781 L 206.652344 86.503906 "/>
<path style="fill:none;stroke-width:1.2;stroke-linecap:butt;stroke-linejoin:miter;stroke:rgb(0%,0%,0%);stroke-opacity:1;stroke-miterlimit:10;" d="M 209.324219 105.515625 L 202.964844 90.277344 "/>
<path style="fill:none;stroke-width:1.2;stroke-linecap:butt;stroke-linejoin:miter;stroke:rgb(0%,0%,0%);stroke-opacity:1;stroke-miterlimit:10;" d="M 206.652344 86.503906 L 186.179688 83.863281 "/>
<path style="fill:none;stroke-width:1.2;stroke-linecap:butt;stroke-linejoin:miter;stroke:rgb(0%,0%,0%);stroke-opacity:1;stroke-miterlimit:10;" d="M 186.179688 83.863281 L 173.660156 100.273438 "/>
<path style="fill:none;stroke-width:1.2;stroke-linecap:butt;stroke-linejoin:miter;stroke:rgb(0%,0%,0%);stroke-opacity:1;stroke-miterlimit:10;" d="M 188.789062 88.453125 L 178.773438 101.578125 "/>
</g>
</svg>

<svg xmlns="http://www.w3.org/2000/svg" xmlns:xlink="http://www.w3.org/1999/xlink" width="300pt" height="300pt" viewBox="0 0 300 300"><defs><symbol overflow="visible"><path d="M.453 1.594v-7.938h4.5v7.938zm.5-.5h3.5v-6.938h-3.5zm0 0"/></symbol><symbol overflow="visible" id="a"><path d="M.89-6.563H2.08l2.906 5.485v-5.484h.86V0H4.656L1.75-5.484V0H.89zm0 0"/></symbol><symbol overflow="visible" id="b"><path d="M.89-6.563h.876v2.688H5v-2.688h.89V0H5v-3.125H1.766V0H.89zm0 0"/></symbol></defs><g><path fill="#fff" d="M0 0h300v300H0z"/><path d="M264.75 149.117l-19.477-6.836M245.273 142.28l-7.828 6.728" stroke-width="1.2" stroke="#000" stroke-miterlimit="10" fill="none"/><path d="M237.445 149.008l-7.828 6.722M229.617 155.73l1.906 10.14" stroke-width="1.2" stroke="#00f" stroke-miterlimit="10" fill="none"/><path d="M231.523 165.87l1.91 10.146" stroke-width="1.2" stroke="#000" stroke-miterlimit="10" fill="none"/><path d="M229.617 155.73l-9.738-3.417" stroke-width="1.2" stroke="#00f" stroke-miterlimit="10" fill="none"/><path d="M219.88 152.313l-9.74-3.418" stroke-width="1.2" stroke="#000" stroke-miterlimit="10" fill="none"/><path d="M226.617 150.23h7v11h-7zm0 0" fill="#fff"/><use xlink:href="#a" x="226.617" y="158.894" fill="#00f"/><path d="M233.434 176.016l19.476 6.836M210.14 148.895l-15.656 13.445M194.484 162.34l-9.738-3.418" stroke-width="1.2" stroke="#000" stroke-miterlimit="10" fill="none"/><path d="M184.746 158.922l-9.738-3.418M175.008 155.504l-8.488 5.87" stroke-width="1.2" stroke="#00f" stroke-miterlimit="10" fill="none"/><path d="M166.52 161.375l-8.49 5.867M169.09 135.73l2.96 9.887" stroke-width="1.2" stroke="#000" stroke-miterlimit="10" fill="none"/><path d="M172.05 145.617l2.958 9.887" stroke-width="1.2" stroke="#00f" stroke-miterlimit="10" fill="none"/><path d="M172.008 150.004h7v11h-7zm0 0" fill="#fff"/><use xlink:href="#a" x="172.008" y="158.667" fill="#00f"/><path d="M158.03 167.242l-16.41-12.52M153.44 169.852l-13.124-10.016" stroke-width="1.2" stroke="#000" stroke-miterlimit="10" fill="none"/><path d="M155.39 187.715l1.32-10.238" stroke-width="1.2" stroke="#00f" stroke-miterlimit="10" fill="none"/><path d="M156.71 177.477l1.32-10.235M141.62 154.723l-19.046 7.95M141.62 154.723l3.42-9.74" stroke-width="1.2" stroke="#000" stroke-miterlimit="10" fill="none"/><path d="M145.04 144.984l3.417-9.738" stroke-width="1.2" stroke="#00f" stroke-miterlimit="10" fill="none"/><path d="M122.574 162.672l-1.32 10.238" stroke-width="1.2" stroke="#000" stroke-miterlimit="10" fill="none"/><path d="M121.254 172.91l-1.32 10.235" stroke-width="1.2" stroke="#00f" stroke-miterlimit="10" fill="none"/><path d="M127.125 165.34l-1.055 8.19" stroke-width="1.2" stroke="#000" stroke-miterlimit="10" fill="none"/><path d="M126.07 173.53l-1.054 8.19" stroke-width="1.2" stroke="#00f" stroke-miterlimit="10" fill="none"/><path d="M122.574 162.672l-8.207-6.258" stroke-width="1.2" stroke="#000" stroke-miterlimit="10" fill="none"/><path d="M114.367 156.414l-8.203-6.262M119.934 183.145l8.207 6.26" stroke-width="1.2" stroke="#00f" stroke-miterlimit="10" fill="none"/><path d="M128.14 189.406l8.204 6.258" stroke-width="1.2" stroke="#000" stroke-miterlimit="10" fill="none"/><path d="M116.934 177.645h7v11h-7zm0 0" fill="#fff"/><use xlink:href="#a" x="116.934" y="186.308" fill="#00f"/><path d="M136.344 195.664l9.523-3.976" stroke-width="1.2" stroke="#000" stroke-miterlimit="10" fill="none"/><path d="M145.867 191.688l9.524-3.973" stroke-width="1.2" stroke="#00f" stroke-miterlimit="10" fill="none"/><path d="M136.38 190.387l7.616-3.18" stroke-width="1.2" stroke="#000" stroke-miterlimit="10" fill="none"/><path d="M143.996 187.207l7.62-3.18" stroke-width="1.2" stroke="#00f" stroke-miterlimit="10" fill="none"/><path d="M136.344 195.664l-2.637 20.473" stroke-width="1.2" stroke="#000" stroke-miterlimit="10" fill="none"/><path d="M152.39 182.215h7v11h-7zm0 0" fill="#fff"/><use xlink:href="#a" x="152.391" y="190.878" fill="#00f"/><path d="M106.164 150.152l-9.523 3.977" stroke-width="1.2" stroke="#00f" stroke-miterlimit="10" fill="none"/><path d="M96.64 154.13l-9.523 3.975" stroke-width="1.2" stroke="#000" stroke-miterlimit="10" fill="none"/><path d="M99.164 144.652h14v11h-14zm0 0" fill="#fff"/><g fill="#00f"><use xlink:href="#a" x="99.164" y="153.315"/><use xlink:href="#b" x="106.142" y="153.315"/></g><path d="M87.117 158.105l-16.41-12.52M70.707 145.586l2.637-20.473M66.152 142.918l2.114-16.38M51.66 153.535l19.047-7.95M73.344 125.113l-16.41-12.52M56.934 112.594l-19.047 7.95M56.902 117.87l-15.238 6.36M37.887 120.543l-2.637 20.473M35.25 141.016l16.41 12.52M39.836 138.406l13.13 10.016" stroke-width="1.2" stroke="#000" stroke-miterlimit="10" fill="none"/><path d="M148.457 135.246l10.316.242" stroke-width="1.2" stroke="#00f" stroke-miterlimit="10" fill="none"/><path d="M158.773 135.488l10.317.242" stroke-width="1.2" stroke="#000" stroke-miterlimit="10" fill="none"/><path d="M150.406 140.152l8.254.192" stroke-width="1.2" stroke="#00f" stroke-miterlimit="10" fill="none"/><path d="M158.66 140.344l8.254.195" stroke-width="1.2" stroke="#000" stroke-miterlimit="10" fill="none"/><path d="M145.457 129.746h7v11h-7zm0 0" fill="#fff"/><use xlink:href="#a" x="145.457" y="138.409" fill="#00f"/><path d="M169.09 135.73l12.523-16.41M181.613 119.32l20.47 2.64M184.28 114.77l16.376 2.11M173.66 100.273l7.953 19.047M202.082 121.96l12.52-16.41M214.602 105.55l-7.95-19.046M209.324 105.516l-6.36-15.24M206.652 86.504l-20.472-2.64M186.18 83.863l-12.52 16.41M188.79 88.453l-10.017 13.125" stroke-width="1.2" stroke="#000" stroke-miterlimit="10" fill="none"/></g></svg>
